X: 29307
T: New Tin Whistle, The
R: jig
M: 6/8
K: Dmixolydian
FED AFD|~c3 BAG|FGA AFD|DED C2D|
FED AFD|~c3 Adc|dcA AGE|DED D2E:|
=FAc cBA|BAG EDC|~A,3 AGE|DED C2E|
=FAc cBA|~B3 cBc|dcA AGE|DED D2E:|

